; generated by Slic3r 0.7.1-dev on 2012-03-13 at 12:39:08

; layer_height = 0.4
; perimeters = 2
; solid_layers = 3
; fill_density = 0.15
; nozzle_diameter = 0.5
; filament_diameter = 1.7
; extrusion_multiplier = 1
; perimeter_speed = 36
; infill_speed = 36
; travel_speed = 200
; extrusion_width_ratio = 0
; scale = 1
; single wall width = 0.53mm

M190 S70 ; set bed temperature
M104 S200 ; set temperature
G28
M83
M109 S200 ; wait for temperature to be reached
G90 ; use absolute coordinates
G21 ; set units to millimeters
G92 E0 ; reset extrusion distance
M83 ; use relative distances for extrusion
G1 Z0.400 F12000.000
G1 X32.670 Y40.300
G1 F1800.000 E3.40000
G1 X33.170 Y40.160 F1080.000 E0.04755
G1 X33.670 Y40.070 E0.04652
G1 X34.180 Y40.020 E0.04693
G1 X76.430 Y39.510 E3.86927
G1 X77.280 Y39.560 E0.07797
G1 X80.170 Y39.950 E0.26705
G1 X80.790 Y40.100 E0.05841
G1 X84.070 Y41.430 E0.32412
G1 X84.620 Y41.730 E0.05737
G1 X87.200 Y43.660 E0.29505
G1 X87.880 Y44.260 E0.08304
G1 X105.800 Y62.840 E2.36385
G1 X106.330 Y63.480 E0.07609
G1 X106.490 Y63.700 E0.02491
G1 X106.770 Y64.170 E0.05010
G1 X107.110 Y64.930 E0.07624
G1 X107.200 Y65.190 E0.02520
G1 X111.360 Y80.850 E1.48378
G1 X111.410 Y81.130 E0.02605
G1 X111.460 Y81.700 E0.05240
G1 X111.470 Y81.990 E0.02657
G1 X111.440 Y82.560 E0.05227
G1 X111.410 Y82.840 E0.02579
G1 X110.810 Y85.400 E0.24078
G1 X110.640 Y85.910 E0.04923
G1 X110.540 Y86.160 E0.02466
G1 X110.300 Y86.640 E0.04914
G1 X110.020 Y87.100 E0.04931
G1 X109.700 Y87.530 E0.04908
G1 X108.130 Y89.280 E0.21529
G1 X107.920 Y89.480 E0.02656
G1 X107.460 Y89.860 E0.05464
G1 X106.720 Y90.340 E0.08077
G1 X89.100 Y99.880 E1.83485
G1 X88.350 Y100.180 E0.07397
G1 X87.820 Y100.330 E0.05044
G1 X87.290 Y100.430 E0.04939
G1 X87.020 Y100.460 E0.02488
G1 X86.480 Y100.480 E0.04948
G1 X57.980 Y100.460 E2.60985
G1 X57.460 Y100.390 E0.04805
G1 X56.680 Y100.200 E0.07352
G1 X55.940 Y99.900 E0.07312
G1 X55.710 Y99.790 E0.02335
G1 X55.250 Y99.520 E0.04884
G1 X55.030 Y99.370 E0.02438
G1 X54.610 Y99.040 E0.04891
G1 X54.420 Y98.870 E0.02335
G1 X54.040 Y98.490 E0.04921
G1 X29.860 Y71.530 E3.31633
G1 X29.530 Y71.080 E0.05110
G1 X29.240 Y70.610 E0.05057
G1 X29.000 Y70.110 E0.05079
G1 X28.810 Y69.590 E0.05070
G1 X28.600 Y68.780 E0.07663
G1 X28.530 Y68.230 E0.05077
G1 X28.250 Y60.670 E0.69277
G1 X28.520 Y45.650 E1.37566
G1 X28.570 Y45.140 E0.04693
G1 X28.730 Y44.380 E0.07112
G1 X28.890 Y43.900 E0.04633
G1 X29.210 Y43.190 E0.07132
G1 X29.470 Y42.750 E0.04680
G1 X29.770 Y42.330 E0.04726
G1 X29.930 Y42.130 E0.02345
G1 X30.100 Y41.940 E0.02335
G1 X30.660 Y41.410 E0.07061
G1 X30.860 Y41.250 E0.02345
G1 X31.280 Y40.950 E0.04726
G1 X31.950 Y40.580 E0.07009
G1 X32.430 Y40.380 E0.04762
G1 X32.595 Y40.325 E0.01596
G1 F1800.000 E-3.40000
G1 X69.947 Y55.500 F12000.000
G1 F1800.000 E3.40000
G1 X73.223 Y49.825 F1080.000 E0.60010
G1 X79.777 Y49.825 E0.60009
G1 X83.053 Y55.500 E0.60010
G1 X79.777 Y61.175 E0.60009
G1 X78.763 Y61.175 E0.09286
G1 X78.763 Y79.416 E1.67038
G1 X79.757 Y79.859 E0.09969
G1 X80.859 Y80.659 E0.12470
G1 X81.770 Y81.671 E0.12470
G1 X82.451 Y82.851 E0.12471
G1 X82.872 Y84.146 E0.12471
G1 X83.014 Y85.500 E0.12470
G1 X82.872 Y86.854 E0.12470
G1 X82.451 Y88.149 E0.12471
G1 X81.770 Y89.329 E0.12471
G1 X80.859 Y90.341 E0.12470
G1 X79.757 Y91.141 E0.12470
G1 X78.513 Y91.695 E0.12470
G1 X77.181 Y91.978 E0.12470
G1 X75.819 Y91.978 E0.12470
G1 X74.487 Y91.695 E0.12470
G1 X73.243 Y91.141 E0.12470
G1 X72.141 Y90.341 E0.12470
G1 X71.230 Y89.329 E0.12470
G1 X70.549 Y88.149 E0.12471
G1 X70.128 Y86.854 E0.12471
G1 X69.986 Y85.500 E0.12470
G1 X70.128 Y84.146 E0.12470
G1 X70.549 Y82.851 E0.12471
G1 X71.230 Y81.671 E0.12471
G1 X72.141 Y80.659 E0.12470
G1 X73.243 Y79.859 E0.12470
G1 X74.487 Y79.305 E0.12470
G1 X75.819 Y79.022 E0.12470
G1 X76.238 Y79.022 E0.03831
G1 X76.238 Y61.175 E1.63428
G1 X73.223 Y61.175 E0.27601
G1 X69.986 Y55.568 E0.59288
G1 X69.352 Y55.500 F12000.000
G1 X72.926 Y49.310 F1080.000 E0.65457
G1 X80.074 Y49.310 E0.65457
G1 X83.648 Y55.500 E0.65457
G1 X80.074 Y61.690 E0.65457
G1 X79.278 Y61.690 E0.07292
G1 X79.278 Y79.081 E1.59257
G1 X80.016 Y79.410 E0.07401
G1 X81.205 Y80.274 E0.13462
G1 X82.189 Y81.367 E0.13462
G1 X82.924 Y82.640 E0.13462
G1 X83.378 Y84.038 E0.13462
G1 X83.532 Y85.500 E0.13462
G1 X83.378 Y86.962 E0.13462
G1 X82.924 Y88.360 E0.13462
G1 X82.189 Y89.633 E0.13462
G1 X81.205 Y90.726 E0.13462
G1 X80.016 Y91.590 E0.13462
G1 X78.673 Y92.188 E0.13462
G1 X77.235 Y92.493 E0.13462
G1 X75.765 Y92.493 E0.13462
G1 X74.327 Y92.188 E0.13462
G1 X72.984 Y91.590 E0.13462
G1 X71.795 Y90.726 E0.13462
G1 X70.811 Y89.633 E0.13462
G1 X70.076 Y88.360 E0.13462
G1 X69.622 Y86.962 E0.13462
G1 X69.468 Y85.500 E0.13462
G1 X69.622 Y84.038 E0.13462
G1 X70.076 Y82.640 E0.13462
G1 X70.811 Y81.367 E0.13462
G1 X71.795 Y80.274 E0.13462
G1 X72.984 Y79.410 E0.13462
G1 X74.327 Y78.812 E0.13462
G1 X75.722 Y78.516 E0.13063
G1 X75.722 Y61.690 E1.54075
G1 X72.926 Y61.690 E0.25607
G1 X69.391 Y55.568 E0.64736
G1 F1800.000 E-3.40000
G1 X67.028 Y55.551 F12000.000
G1 F1800.000 E3.40000
G1 X67.357 Y53.050 F1080.000 E0.23099
G1 X68.303 Y50.767 E0.22628
G1 X69.807 Y48.807 E0.22628
G1 X71.767 Y47.303 E0.22628
G1 X74.050 Y46.357 E0.22628
G1 X76.500 Y46.034 E0.22628
G1 X78.950 Y46.357 E0.22628
G1 X81.233 Y47.303 E0.22628
G1 X83.193 Y48.807 E0.22628
G1 X84.697 Y50.767 E0.22628
G1 X85.643 Y53.050 E0.22628
G1 X85.972 Y55.551 E0.23099
G1 X85.972 Y67.528 E1.09675
G1 X100.972 Y67.528 E1.37361
G1 X100.972 Y75.222 E0.70463
G1 X85.972 Y75.222 E1.37361
G1 X85.972 Y84.778 E0.87502
G1 X102.528 Y84.778 E1.51604
G1 X102.528 Y84.468 E0.02831
G1 X103.535 Y84.239 E0.09463
G1 X104.613 Y82.000 E0.22752
G1 X103.535 Y79.761 E0.22752
G1 X102.528 Y79.532 E0.09463
G1 X102.528 Y79.222 E0.02832
G1 X89.528 Y79.222 E1.19046
G1 X89.528 Y78.778 E0.04072
G1 X100.972 Y78.778 E1.04803
G1 X100.972 Y78.966 E0.01720
G1 X102.136 Y78.824 E0.10731
G1 X103.567 Y79.367 E0.14022
G1 X104.583 Y80.513 E0.14021
G1 X104.949 Y82.000 E0.14021
G1 X104.583 Y83.487 E0.14022
G1 X103.567 Y84.633 E0.14021
G1 X102.136 Y85.176 E0.14022
G1 X100.972 Y85.035 E0.10730
G1 X100.972 Y85.222 E0.01720
G1 X85.972 Y85.222 E1.37361
G1 X85.972 Y93.972 E0.80127
G1 X59.028 Y93.972 E2.46742
G1 X59.028 Y85.278 E0.79620
G1 X65.353 Y85.278 E0.57927
G1 X65.353 Y82.278 E0.27472
G1 X67.028 Y82.278 E0.15332
G1 X67.028 Y55.630 E2.44025
G1 X66.513 Y55.517 F12000.000
G1 X66.855 Y52.916 F1080.000 E0.24029
G1 X67.853 Y50.507 E0.23870
G1 X69.439 Y48.439 E0.23870
G1 X71.507 Y46.852 E0.23871
G1 X73.916 Y45.855 E0.23870
G1 X76.500 Y45.515 E0.23870
G1 X79.084 Y45.855 E0.23870
G1 X81.493 Y46.852 E0.23870
G1 X83.561 Y48.439 E0.23871
G1 X85.147 Y50.507 E0.23870
G1 X86.145 Y52.916 E0.23870
G1 X86.488 Y55.517 E0.24029
G1 X86.488 Y67.013 E1.05267
G1 X101.487 Y67.013 E1.37361
G1 X101.487 Y75.737 E0.79898
G1 X86.488 Y75.737 E1.37361
G1 X86.488 Y84.263 E0.78067
G1 X102.013 Y84.263 E1.42168
G1 X102.013 Y84.058 E0.01876
G1 X103.179 Y83.791 E0.10954
G1 X104.041 Y82.000 E0.18208
G1 X103.179 Y80.209 E0.18208
G1 X102.013 Y79.942 E0.10954
G1 X102.013 Y79.738 E0.01876
G1 X89.013 Y79.738 E1.19046
G1 X89.013 Y78.263 E0.13507
G1 X101.487 Y78.263 E1.14238
G1 X101.487 Y78.384 E0.01113
G1 X102.200 Y78.298 E0.06568
G1 X103.869 Y78.931 E0.16348
G1 X105.052 Y80.267 E0.16347
G1 X105.480 Y82.000 E0.16347
G1 X105.052 Y83.733 E0.16347
G1 X103.869 Y85.069 E0.16346
G1 X102.200 Y85.702 E0.16348
G1 X101.487 Y85.616 E0.06568
G1 X101.487 Y85.738 E0.01112
G1 X86.488 Y85.738 E1.37361
G1 X86.488 Y94.488 E0.80127
G1 X58.513 Y94.488 E2.56177
G1 X58.513 Y84.763 E0.89055
G1 X64.838 Y84.763 E0.57927
G1 X64.838 Y81.763 E0.27472
G1 X66.513 Y81.763 E0.15332
G1 X66.513 Y55.596 E2.39617
G1 F1800.000 E-3.40000
G1 X45.513 Y52.413 F12000.000
G1 F1800.000 E3.40000
G1 X38.987 Y52.413 F900.000 E0.59752
G1 X38.987 Y48.888 E0.32280
G1 X45.513 Y48.888 E0.59752
G1 X45.513 Y52.334 E0.31559
G1 X46.028 Y52.928 F12000.000
G1 X38.472 Y52.928 F900.000 E0.69187
G1 X38.472 Y48.372 E0.41715
G1 X46.028 Y48.372 E0.69187
G1 X46.028 Y52.849 E0.40994
G1 F1800.000 E-3.40000
G1 X38.348 Y59.684 F12000.000
G1 F1800.000 E3.40000
G1 X36.973 Y58.309 F1080.000 E0.17815
G1 X35.028 Y58.309 E0.17812
G1 X35.028 Y46.528 E1.07883
G1 X54.722 Y46.528 E1.80351
G1 X54.722 Y75.470 E2.65037
G1 X48.278 Y75.470 E0.59016
G1 X48.278 Y74.546 E0.08462
G1 X52.278 Y74.546 E0.36629
G1 X52.278 Y67.222 E0.67066
G1 X35.028 Y67.222 E1.57965
G1 X35.028 Y63.005 E0.38617
G1 X36.973 Y63.005 E0.17811
G1 X38.348 Y61.630 E0.17814
G1 X38.348 Y59.763 E0.17093
G1 X37.833 Y59.898 F12000.000
G1 X36.759 Y58.824 F1080.000 E0.13906
G1 X35.241 Y58.824 E0.13907
G1 X34.513 Y59.552 E0.09431
G1 X34.513 Y46.013 E1.23987
G1 X55.237 Y46.013 E1.89786
G1 X55.237 Y75.985 E2.74472
G1 X47.763 Y75.985 E0.68451
G1 X47.763 Y74.031 E0.17897
G1 X51.763 Y74.031 E0.36629
G1 X51.763 Y67.737 E0.57631
G1 X34.513 Y67.737 E1.57965
G1 X34.513 Y61.762 E0.54720
G1 X35.241 Y62.490 E0.09430
G1 X36.759 Y62.490 E0.13907
G1 X37.833 Y61.416 E0.13906
G1 X37.833 Y59.977 E0.13185
G1 F1800.000 E-3.40000
G1 X34.359 Y60.960 F12000.000
G1 F1800.000 E3.40000
G1 X34.257 Y60.783 F1080.000 E0.01871
G1 F1800.000 E-3.40000
G1 X67.394 Y60.611 F12000.000
G1 F1800.000 E3.40000
G1 X75.356 Y68.573 F960.000 E1.04272
G1 X75.356 Y69.306 F12000.000
G1 X67.394 Y61.345 F960.000 E1.04272
G1 X67.394 Y62.079 F12000.000
G1 X75.356 Y70.040 F960.000 E1.04272
G1 X75.356 Y70.774 F12000.000
G1 X67.394 Y62.813 F960.000 E1.04272
G1 X67.394 Y63.547 F12000.000
G1 X75.356 Y71.508 F960.000 E1.04272
G1 X75.356 Y72.242 F12000.000
G1 X67.394 Y64.281 F960.000 E1.04272
G1 X67.394 Y65.015 F12000.000
G1 X75.356 Y72.976 F960.000 E1.04272
G1 X75.356 Y73.710 F12000.000
G1 X67.394 Y65.748 F960.000 E1.04272
G1 X67.394 Y66.482 F12000.000
G1 X75.356 Y74.444 F960.000 E1.04272
G1 X75.356 Y75.177 F12000.000
G1 X67.394 Y67.216 F960.000 E1.04272
G1 X67.394 Y67.950 F12000.000
G1 X75.356 Y75.911 F960.000 E1.04272
G1 X75.356 Y76.645 F12000.000
G1 X67.394 Y68.684 F960.000 E1.04272
G1 X67.394 Y69.418 F12000.000
G1 X75.356 Y77.379 F960.000 E1.04272
G1 X75.356 Y78.113 F12000.000
G1 X67.394 Y70.152 F960.000 E1.04272
G1 X67.394 Y70.886 F12000.000
G1 X74.861 Y78.352 F960.000 E0.97791
G1 X74.265 Y78.490 F12000.000
G1 X67.394 Y71.619 F960.000 E0.89990
G1 X67.394 Y72.353 F12000.000
G1 X73.757 Y78.716 F960.000 E0.83340
G1 X73.250 Y78.943 F12000.000
G1 X67.394 Y73.087 F960.000 E0.76689
G1 X67.394 Y73.821 F12000.000
G1 X72.763 Y79.190 F960.000 E0.70319
G1 X72.338 Y79.499 F12000.000
G1 X67.394 Y74.555 F960.000 E0.64752
G1 X67.394 Y75.289 F12000.000
G1 X71.913 Y79.808 F960.000 E0.59185
G1 X71.508 Y80.136 F12000.000
G1 X67.394 Y76.023 F960.000 E0.53876
G1 X67.394 Y76.757 F12000.000
G1 X71.160 Y80.522 F960.000 E0.49322
G1 X70.812 Y80.909 F12000.000
G1 X67.394 Y77.491 F960.000 E0.44768
G1 X67.394 Y78.224 F12000.000
G1 X70.482 Y81.312 F960.000 E0.40439
G1 X70.213 Y81.777 F12000.000
G1 X67.394 Y78.958 F960.000 E0.36921
G1 X67.394 Y79.692 F12000.000
G1 X69.945 Y82.243 F960.000 E0.33403
G1 X69.701 Y82.733 F12000.000
G1 X67.394 Y80.426 F960.000 E0.30210
G1 X67.394 Y81.160 F12000.000
G1 X69.521 Y83.287 F960.000 E0.27852
G1 X69.341 Y83.840 F12000.000
G1 X67.394 Y81.894 F960.000 E0.25495
G1 X67.394 Y82.628 F12000.000
G1 X69.224 Y84.457 F960.000 E0.23960
G1 X69.154 Y85.121 F12000.000
G1 X66.677 Y82.644 F960.000 E0.32440
G1 X65.943 Y82.644 F12000.000
G1 X69.116 Y85.817 F960.000 E0.41558
G1 X69.202 Y86.637 F12000.000
G1 X65.720 Y83.155 F960.000 E0.45610
G1 X65.720 Y83.889 F12000.000
G1 X69.367 Y87.536 F960.000 E0.47760
G1 X69.720 Y88.623 F12000.000
G1 X65.720 Y84.623 F960.000 E0.52386
G1 X65.720 Y85.357 F12000.000
G1 X71.361 Y90.998 F960.000 E0.73885
G1 X71.395 Y91.031 F12000.000
G1 X73.969 Y93.606 F960.000 E0.33716
G1 X74.703 Y93.606 E0.06797
G1 X73.317 Y92.220 E0.18154
G1 X74.456 Y92.625 E0.11199
G1 X75.437 Y93.606 E0.12844
G1 X76.171 Y93.606 E0.06797
G1 X75.388 Y92.823 E0.10249
G1 X76.159 Y92.860 E0.07148
G1 X76.905 Y93.606 E0.09764
G1 X77.638 Y93.606 E0.06797
G1 X76.893 Y92.860 E0.09764
G1 X77.542 Y92.775 E0.06059
G1 X78.372 Y93.606 E0.10880
G1 X79.106 Y93.606 E0.06797
G1 X78.147 Y92.646 E0.12565
G1 X78.741 Y92.507 E0.05654
G1 X79.840 Y93.606 E0.14393
G1 X80.574 Y93.606 E0.06797
G1 X79.249 Y92.281 E0.17354
G1 X79.757 Y92.055 E0.05148
G1 X81.308 Y93.606 E0.20314
G1 X82.042 Y93.606 E0.06797
G1 X80.242 Y91.806 E0.23570
G1 X80.667 Y91.497 F12000.000
G1 X82.776 Y93.606 F960.000 E0.27615
G1 X83.509 Y93.606 E0.06797
G1 X81.092 Y91.188 E0.31660
G1 X81.497 Y90.859 F12000.000
G1 X84.243 Y93.606 F960.000 E0.35976
G1 X84.977 Y93.606 E0.06797
G1 X81.844 Y90.473 E0.41034
G1 X82.192 Y90.086 F12000.000
G1 X85.606 Y93.500 F960.000 E0.44710
G1 X85.606 Y92.766 E0.06797
G1 X82.521 Y89.682 E0.40395
G1 X82.790 Y89.217 F12000.000
G1 X85.606 Y92.032 F960.000 E0.36877
G1 X85.606 Y91.299 E0.06797
G1 X83.059 Y88.752 E0.33358
G1 X83.301 Y88.260 F12000.000
G1 X85.606 Y90.565 F960.000 E0.30180
G1 X85.606 Y89.831 E0.06797
G1 X83.481 Y87.706 E0.27823
G1 X83.661 Y87.153 E0.05394
G1 X85.606 Y89.097 E0.25466
G1 X85.606 Y88.363 E0.06797
G1 X83.777 Y86.534 E0.23949
G1 X83.847 Y85.870 E0.06184
G1 X85.606 Y87.629 E0.23034
G1 X85.606 Y86.895 E0.06797
G1 X83.883 Y85.172 E0.22567
G1 X83.796 Y84.352 E0.07637
G1 X85.606 Y86.161 E0.23696
G1 X85.606 Y85.427 E0.06797
G1 X83.629 Y83.451 E0.25890
G1 X83.276 Y82.364 E0.10586
G1 X85.606 Y84.694 E0.30516
G1 X85.606 Y83.960 E0.06797
G1 X81.555 Y79.909 E0.53057
G1 X81.639 Y79.993 F12000.000
G1 X79.644 Y77.998 F960.000 E0.26127
G1 X79.644 Y77.265 E0.06797
G1 X85.606 Y83.226 E0.78077
G1 X85.606 Y82.492 E0.06797
G1 X79.644 Y76.531 E0.78077
G1 X79.644 Y75.797 E0.06797
G1 X85.606 Y81.758 E0.78077
G1 X85.606 Y81.024 E0.06797
G1 X79.644 Y75.063 E0.78077
G1 X79.644 Y74.329 E0.06797
G1 X85.606 Y80.290 E0.78077
G1 X85.606 Y79.556 E0.06797
G1 X79.644 Y73.595 E0.78077
G1 X79.644 Y72.861 E0.06797
G1 X85.606 Y78.823 E0.78077
G1 X85.606 Y78.089 E0.06797
G1 X79.644 Y72.127 E0.78077
G1 X79.644 Y71.393 E0.06797
G1 X85.606 Y77.355 E0.78077
G1 X85.606 Y76.621 E0.06797
G1 X79.644 Y70.660 E0.78077
G1 X79.644 Y69.926 E0.06797
G1 X85.606 Y75.887 E0.78077
G1 X85.606 Y75.153 E0.06797
G1 X79.644 Y69.192 E0.78077
G1 X79.644 Y68.458 E0.06797
G1 X86.042 Y74.856 E0.83793
G1 X86.776 Y74.856 E0.06797
G1 X79.644 Y67.724 E0.93405
G1 X79.644 Y66.990 E0.06797
G1 X87.510 Y74.856 E1.03017
G1 X88.244 Y74.856 E0.06797
G1 X79.644 Y66.256 E1.12629
G1 X79.644 Y65.522 E0.06797
G1 X88.978 Y74.856 E1.22240
G1 X89.711 Y74.856 E0.06797
G1 X79.644 Y64.789 E1.31852
G1 X79.644 Y64.055 E0.06797
G1 X90.445 Y74.856 E1.41464
G1 X91.179 Y74.856 E0.06797
G1 X79.644 Y63.321 E1.51076
G1 X79.644 Y62.587 E0.06797
G1 X91.913 Y74.856 E1.60688
G1 X92.647 Y74.856 E0.06797
G1 X85.686 Y67.894 E0.91174
G1 X85.606 Y67.814 F12000.000
G1 X79.848 Y62.057 F960.000 E0.75405
G1 X80.354 Y61.829 F12000.000
G1 X85.606 Y67.080 F960.000 E0.68777
G1 X85.606 Y66.347 E0.06797
G1 X80.623 Y61.364 E0.65258
G1 X80.892 Y60.899 F12000.000
G1 X85.606 Y65.613 F960.000 E0.61740
G1 X85.606 Y64.879 E0.06797
G1 X81.160 Y60.433 E0.58222
G1 X81.429 Y59.968 F12000.000
G1 X85.606 Y64.145 F960.000 E0.54704
G1 X85.606 Y63.411 E0.06797
G1 X81.698 Y59.503 E0.51186
G1 X81.966 Y59.038 F12000.000
G1 X85.606 Y62.677 F960.000 E0.47667
G1 X85.606 Y61.943 E0.06797
G1 X82.235 Y58.572 E0.44149
G1 X82.503 Y58.107 F12000.000
G1 X85.606 Y61.209 F960.000 E0.40631
G1 X85.606 Y60.475 E0.06797
G1 X82.772 Y57.642 E0.37113
G1 X83.041 Y57.177 F12000.000
G1 X85.606 Y59.742 F960.000 E0.33595
G1 X85.606 Y59.008 E0.06797
G1 X83.309 Y56.711 E0.30076
G1 X83.578 Y56.246 F12000.000
G1 X85.606 Y58.274 F960.000 E0.26558
G1 X85.606 Y57.540 E0.06797
G1 X83.847 Y55.781 E0.23040
G1 X84.017 Y55.217 F12000.000
G1 X85.606 Y56.806 F960.000 E0.20809
G1 X85.606 Y56.072 E0.06797
G1 X83.014 Y53.481 E0.33939
G1 X82.012 Y51.744 E0.18569
G1 X85.546 Y55.278 E0.46285
G1 X85.435 Y54.433 E0.07895
G1 X81.009 Y50.008 E0.57957
G1 X79.944 Y48.943 F12000.000
G1 X77.567 Y46.566 F960.000 E0.31138
G1 X76.722 Y46.454 F12000.000
G1 X79.210 Y48.943 F960.000 E0.32595
G1 X78.476 Y48.943 F12000.000
G1 X75.987 Y46.454 F960.000 E0.32605
